X: 1
T: The Funky Reel
R: reel
M: 4/4
L: 1/8
K: Dmix
|:EABc AEAc|B2 Bc BAGF|EABc AEAc| BGdB BAGF|
 EABc AEAc|B2 Bc BAGF|EABc AEAc|1 BGdB BAA2:|2 BGdB BAGB||
|:AecA fcAg|cAfc AecB|AecA fcAg| cAdB G2 B2
AecA fcAg|cAfc AecB|AecA fcAg|1 cAdB G2 A2:|2 cAdB G2 F2||